icons/logo.svg

<svg class="i-logo" width="78" height="40" viewBox="0 0 78 40" fill="none" xmlns="http://www.w3.org/2000/svg" aria-hidden="true">
	<path fill-rule="evenodd" clip-rule="evenodd" d="M19.89 0C30.8769 0 39.78 8.96107 39.78 20.0056C39.78 31.0501 30.8769 40 19.89 40C8.90314 40 0 31.0501 0 20.0056C0 8.96107 8.90314 0 19.89 0ZM20.3134 12.2095C15.8451 12.2095 12.2683 15.7827 12.2683 20.3304C12.2683 24.8446 15.8451 28.4178 20.3134 28.4178C22.4863 28.4178 24.3806 27.5441 25.7734 26.1439C25.9294 25.9871 25.9294 25.8303 25.7734 25.6735L24.2914 24.0829C24.1577 23.9261 23.9794 23.9261 23.8234 24.0605C22.8874 24.8894 21.7286 25.4046 20.2911 25.4046C17.5611 25.4046 15.4217 23.2316 15.4217 20.3304C15.4217 17.4069 17.5611 15.2226 20.2911 15.2226C21.7286 15.2226 22.8874 15.7379 23.8234 16.578C23.9794 16.7124 24.1577 16.7124 24.2914 16.5556L25.7734 14.9538C25.9294 14.797 25.9294 14.6402 25.7734 14.4833C24.3806 13.0944 22.4863 12.2095 20.3134 12.2095ZM50.2557 14.8934C51.788 14.8934 53.1305 15.4809 54.1088 16.4156C54.2197 16.5216 54.2197 16.6267 54.1088 16.7327L53.0668 17.8033C52.9724 17.9085 52.8465 17.9085 52.7355 17.8184C52.0721 17.2601 51.2505 16.913 50.24 16.913C48.3143 16.913 46.7978 18.3759 46.7978 20.3354C46.7978 22.2806 48.3143 23.7427 50.24 23.7427C51.2505 23.7427 52.0721 23.3964 52.7355 22.8381C52.8465 22.7479 52.9724 22.7479 53.0668 22.8531L54.1088 23.9238C54.2197 24.029 54.2197 24.1349 54.1088 24.2401C53.1305 25.1755 51.788 25.7631 50.2557 25.7631C47.0984 25.7631 44.5714 23.3656 44.5714 20.3354C44.5714 17.2902 47.0984 14.8934 50.2557 14.8934ZM57.646 18.0288C58.6887 18.0288 59.4623 18.4811 59.9998 19.1595L60.0777 18.4059C60.0942 18.2707 60.1729 18.1798 60.3146 18.1798H61.6886C61.8311 18.1798 61.9255 18.2707 61.9255 18.4059V25.3408C61.9255 25.4761 61.8311 25.567 61.6886 25.567H60.3146C60.1729 25.567 60.0942 25.4761 60.0777 25.3408L59.9833 24.6173C59.478 25.2356 58.7044 25.6729 57.646 25.6729C55.4676 25.6729 53.8882 23.9989 53.8882 21.8884C53.8882 19.7328 55.4676 18.0288 57.646 18.0288ZM64.5624 14.5617C64.7049 14.5617 64.7993 14.6519 64.7993 14.7879V25.3413C64.7993 25.4765 64.7049 25.5667 64.5624 25.5667H62.9515C62.8091 25.5667 62.7146 25.4765 62.7146 25.3413V14.7879C62.7146 14.6519 62.8091 14.5617 62.9515 14.5617H64.5624ZM75.0953 18.0142C76.7841 18.0142 78 19.16 78 21.1345V25.3413C78 25.4765 77.9056 25.5667 77.7631 25.5667H76.1522C76.0105 25.5667 75.9161 25.4765 75.9161 25.3413V21.4967C75.9161 20.275 75.2212 19.8527 74.4783 19.8527C73.3104 19.8527 72.7729 20.7431 72.7729 21.2705V25.3413C72.7729 25.4765 72.6785 25.5667 72.5368 25.5667H70.9259C70.7835 25.5667 70.689 25.4765 70.689 25.3413V21.4967C70.689 20.275 69.9941 19.8527 69.2363 19.8527C68.0676 19.8527 67.5309 20.9534 67.5309 21.3006V25.3413C67.5309 25.4765 67.4357 25.5667 67.294 25.5667H65.6839C65.5414 25.5667 65.447 25.4765 65.447 25.3413V18.4056C65.447 18.2704 65.5414 18.1795 65.6839 18.1795H67.2303C67.3727 18.1795 67.4522 18.2704 67.4679 18.4056L67.5309 19.3704V19.3861C68.0361 18.6017 68.8577 18.0142 69.9792 18.0142C71.0046 18.0142 71.8734 18.4965 72.3629 19.3861C72.9154 18.5867 73.8314 18.0142 75.0953 18.0142ZM57.8828 19.838C56.7299 19.838 55.8934 20.6825 55.8934 21.8734C55.8934 23.0192 56.7299 23.8629 57.8828 23.8629C59.0523 23.8629 59.8574 23.0042 59.8574 21.8734C59.8574 20.7576 59.0523 19.838 57.8828 19.838Z" fill="currentColor" />
</svg>

<svg xmlns="http://www.w3.org/2000/svg" width="78" height="40" fill="none" aria-hidden="true" class="i-logo"><path fill="currentColor" fill-rule="evenodd" d="M19.89 0c10.987 0 19.89 8.961 19.89 20.006S30.877 40 19.89 40 0 31.05 0 20.006 8.903 0 19.89 0m.423 12.21c-4.468 0-8.045 3.573-8.045 8.12 0 4.515 3.577 8.088 8.045 8.088a7.62 7.62 0 0 0 5.46-2.274q.234-.236 0-.47l-1.482-1.591c-.133-.157-.312-.157-.468-.022-.936.828-2.094 1.344-3.532 1.344-2.73 0-4.87-2.173-4.87-5.075 0-2.923 2.14-5.107 4.87-5.107 1.438 0 2.596.515 3.532 1.355.156.134.335.134.468-.022l1.482-1.602q.234-.236 0-.47c-1.392-1.39-3.287-2.274-5.46-2.274m29.943 2.683a5.53 5.53 0 0 1 3.853 1.523q.165.158 0 .317l-1.042 1.07c-.095.105-.22.105-.331.015a3.77 3.77 0 0 0-2.496-.905c-1.926 0-3.442 1.463-3.442 3.422 0 1.946 1.516 3.408 3.442 3.408 1.01 0 1.832-.347 2.496-.905.11-.09.236-.09.33.015l1.043 1.07q.165.16 0 .317a5.53 5.53 0 0 1-3.853 1.523c-3.158 0-5.685-2.397-5.685-5.428 0-3.045 2.527-5.442 5.685-5.442m7.39 3.136c1.043 0 1.816.452 2.354 1.13l.078-.753c.016-.135.095-.226.237-.226h1.374c.142 0 .236.09.236.226v6.935c0 .135-.094.226-.236.226h-1.374c-.142 0-.22-.09-.237-.226l-.095-.724c-.505.619-1.279 1.056-2.337 1.056-2.178 0-3.758-1.674-3.758-3.785 0-2.155 1.58-3.86 3.758-3.86m6.916-3.467c.143 0 .237.09.237.226V25.34c0 .136-.094.226-.237.226h-1.61c-.143 0-.237-.09-.237-.226V14.788c0-.136.094-.226.236-.226zm10.533 3.452c1.69 0 2.905 1.146 2.905 3.12v4.207c0 .136-.094.226-.237.226h-1.61c-.143 0-.237-.09-.237-.226v-3.844c0-1.222-.695-1.644-1.438-1.644-1.168 0-1.705.89-1.705 1.417v4.071c0 .136-.094.226-.236.226h-1.611c-.142 0-.237-.09-.237-.226v-3.844c0-1.222-.695-1.644-1.453-1.644-1.168 0-1.705 1.1-1.705 1.448v4.04c0 .136-.095.226-.237.226h-1.61c-.143 0-.237-.09-.237-.226v-6.935c0-.136.094-.226.237-.226h1.546c.143 0 .222.09.238.226l.063.964v.016c.505-.784 1.327-1.372 2.448-1.372 1.026 0 1.894.483 2.384 1.372.552-.8 1.468-1.372 2.732-1.372m-17.212 1.824c-1.153 0-1.99.845-1.99 2.035 0 1.146.837 1.99 1.99 1.99 1.17 0 1.974-.859 1.974-1.99 0-1.115-.805-2.035-1.974-2.035" clip-rule="evenodd"/></svg>
